X:134
T:Cap. Lucas's Fancy THO3.134
O:England;London
M:C|
L:1/8
Z:vmp. Peter Dunk 2011.from a transcription by Fynn Titford-Mock 2006-9
B:Thompson's Compleat Collection of 200 Favourite Country Dances Vol. III.1765-72
Q:1/2=80
K:G
GABc dBAG|ABcd edcB|cBAG AGFE|EFED G2G,2:|
|:bagf gfed|edcB cBAG|ecBA dBAG|Ggfa g2G2:|

